src/assets/icons/receive.svg

<svg width="32" height="32" viewBox="0 0 32 32" fill="none" xmlns="http://www.w3.org/2000/svg">
<path d="M8.00016 26.6663C6.88905 26.6663 5.94461 26.2775 5.16683 25.4997C4.38905 24.7219 4.00016 23.7775 4.00016 22.6663H3.3335C2.22893 22.6663 1.3335 21.7709 1.3335 20.6663V7.99967C1.3335 7.26634 1.59461 6.63856 2.11683 6.11634C2.63905 5.59412 3.26683 5.33301 4.00016 5.33301H20.6668C21.7714 5.33301 22.6668 6.22844 22.6668 7.33301V10.6663H26.1668C26.4816 10.6663 26.778 10.8145 26.9668 11.0663L30.4668 15.733C30.5967 15.9061 30.6668 16.1166 30.6668 16.333V21.6663C30.6668 22.2186 30.2191 22.6663 29.6668 22.6663H28.0002C28.0002 23.7775 27.6113 24.7219 26.8335 25.4997C26.0557 26.2775 25.1113 26.6663 24.0002 26.6663C22.8891 26.6663 21.9446 26.2775 21.1668 25.4997C20.3891 24.7219 20.0002 23.7775 20.0002 22.6663H12.0002C12.0002 23.7775 11.6113 24.7219 10.8335 25.4997C10.0557 26.2775 9.11127 26.6663 8.00016 26.6663ZM8.00016 23.9997C8.37794 23.9997 8.69461 23.8719 8.95016 23.6163C9.20572 23.3608 9.3335 23.0441 9.3335 22.6663C9.3335 22.2886 9.20572 21.9719 8.95016 21.7163C8.69461 21.4608 8.37794 21.333 8.00016 21.333C7.62239 21.333 7.30572 21.4608 7.05016 21.7163C6.79461 21.9719 6.66683 22.2886 6.66683 22.6663C6.66683 23.0441 6.79461 23.3608 7.05016 23.6163C7.30572 23.8719 7.62239 23.9997 8.00016 23.9997ZM4.00016 19.9997H5.06683C5.44461 19.5997 5.87794 19.2775 6.36683 19.033C6.85572 18.7886 7.40016 18.6663 8.00016 18.6663C8.60016 18.6663 9.14461 18.7886 9.6335 19.033C10.1224 19.2775 10.5557 19.5997 10.9335 19.9997H20.0002V7.99967H4.00016V19.9997ZM24.0002 23.9997C24.3779 23.9997 24.6946 23.8719 24.9502 23.6163C25.2057 23.3608 25.3335 23.0441 25.3335 22.6663C25.3335 22.2886 25.2057 21.9719 24.9502 21.7163C24.6946 21.4608 24.3779 21.333 24.0002 21.333C23.6224 21.333 23.3057 21.4608 23.0502 21.7163C22.7946 21.9719 22.6668 22.2886 22.6668 22.6663C22.6668 23.0441 22.7946 23.3608 23.0502 23.6163C23.3057 23.8719 23.6224 23.9997 24.0002 23.9997ZM22.6668 17.333H28.3335L25.3335 13.333H22.6668V17.333Z" fill="#F5F5F5"/>
</svg>

<svg width="32" height="32" fill="none" xmlns="http://www.w3.org/2000/svg"><path d="M8 26.666q-1.665 0-2.833-1.166Q4 24.333 4 22.666h-.667a2 2 0 0 1-2-2V8q0-1.1.784-1.884A2.57 2.57 0 0 1 4 5.333h16.667a2 2 0 0 1 2 2v3.333h3.5a1 1 0 0 1 .8.4l3.5 4.667a1 1 0 0 1 .2.6v5.333a1 1 0 0 1-1 1H28q0 1.667-1.166 2.834-1.167 1.166-2.834 1.166-1.665 0-2.833-1.166Q20 24.333 20 22.666h-8q0 1.667-1.166 2.834Q9.667 26.666 8 26.666M8 24q.567 0 .95-.384a1.3 1.3 0 0 0 .384-.95 1.3 1.3 0 0 0-.384-.95 1.3 1.3 0 0 0-.95-.383 1.3 1.3 0 0 0-.95.383 1.3 1.3 0 0 0-.383.95q0 .567.383.95Q7.434 24 8 24m-4-4h1.067q.566-.6 1.3-.967A3.6 3.6 0 0 1 8 18.666q.9 0 1.633.367.735.367 1.3.967H20V8H4zm20 4q.567 0 .95-.384a1.3 1.3 0 0 0 .384-.95 1.3 1.3 0 0 0-.384-.95 1.3 1.3 0 0 0-.95-.383 1.3 1.3 0 0 0-.95.383 1.3 1.3 0 0 0-.383.95q0 .567.383.95.384.384.95.384m-1.333-6.667h5.666l-3-4h-2.666z" fill="#F5F5F5"/></svg>
